web/themes/custom/surf_main/images/icons/ui-icon-comment.svg

<svg fill="none" height="28" viewBox="0 0 28 28" width="28" xmlns="http://www.w3.org/2000/svg"><path d="m3.55556 17.1111v.75zm7.85434 0 .7495-.0286-.0275-.7214h-.722zm.2965 7.7778-.7494.0286.0672 1.7626 1.2228-1.2713zm7.4813-7.7778v-.75h-.3192l-.2213.2301zm5.2567 0v.75zm-22.13884-11.99999c0-.69036.55964-1.25 1.25-1.25v-1.5c-1.51879 0-2.750003 1.23122-2.750003 2.75zm0 9.99999v-9.99999h-1.500003v9.99999zm1.25 1.25c-.69036 0-1.25-.5596-1.25-1.25h-1.500003c0 1.5188 1.231213 2.75 2.750003 2.75zm7.85434 0h-7.85434v1.5h7.85434zm-.7494.7786.2965 7.7778 1.4989-.0572-.2965-7.7778zm1.5865 8.2691 7.4813-7.7778-1.0811-1.0398-7.4813 7.7778zm12.1974-9.0477h-5.2567v1.5h5.2567zm1.25-1.25c0 .6904-.5596 1.25-1.25 1.25v1.5c1.5188 0 2.75-1.2312 2.75-2.75zm0-9.99999v9.99999h1.5v-9.99999zm-1.25-1.25c.6904 0 1.25.55964 1.25 1.25h1.5c0-1.51878-1.2312-2.75-2.75-2.75zm-20.88884 0h20.88884v-1.5h-20.88884z" fill="#222"/></svg>

<svg width="28" height="28" viewBox="0 0 28 28" fill="none" xmlns="http://www.w3.org/2000/svg">
<path d="M3.55556 17.1111V17.8611H3.55556L3.55556 17.1111ZM11.4099 17.1111L12.1594 17.0825L12.1319 16.3611H11.4099V17.1111ZM11.7064 24.8889L10.957 24.9175L11.0242 26.6801L12.247 25.4088L11.7064 24.8889ZM19.1877 17.1111V16.3611H18.8685L18.6472 16.5912L19.1877 17.1111ZM24.4444 17.1111V17.8611V17.1111ZM2.30556 5.11111C2.30556 4.42075 2.8652 3.86111 3.55556 3.86111V2.36111C2.03677 2.36111 0.805557 3.59233 0.805557 5.11111H2.30556ZM2.30556 15.1111V5.11111H0.805557V15.1111H2.30556ZM3.55556 16.3611C2.8652 16.3611 2.30556 15.8015 2.30556 15.1111H0.805557C0.805557 16.6299 2.03677 17.8611 3.55556 17.8611V16.3611ZM11.4099 16.3611L3.55556 16.3611L3.55556 17.8611L11.4099 17.8611V16.3611ZM10.6605 17.1397L10.957 24.9175L12.4559 24.8603L12.1594 17.0825L10.6605 17.1397ZM12.247 25.4088L19.7283 17.631L18.6472 16.5912L11.1659 24.369L12.247 25.4088ZM24.4444 16.3611L19.1877 16.3611V17.8611L24.4444 17.8611V16.3611ZM25.6944 15.1111C25.6944 15.8015 25.1348 16.3611 24.4444 16.3611V17.8611C25.9632 17.8611 27.1944 16.6299 27.1944 15.1111H25.6944ZM25.6944 5.11111V15.1111H27.1944V5.11111H25.6944ZM24.4444 3.86111C25.1348 3.86111 25.6944 4.42075 25.6944 5.11111H27.1944C27.1944 3.59233 25.9632 2.36111 24.4444 2.36111V3.86111ZM3.55556 3.86111H24.4444V2.36111H3.55556V3.86111Z" fill="#222222"/>
</svg>
